X:120
T:The Darshan Hornpipe 
R:hornpipe
C: 2005, 2010 L.E. McCullough 
M:4/4
L:1/8
K:Bmin 
BA|:FBBA Bcdf|edcA B2 (3gfe|dfed (3cBA ed|(3cBA ed c2BA|
FBBA Bcdf|edcA Bcde|~f3e edcd|1 e~A3 B2BA:|2 e~A3 B2de|]
|:~f3d gfed|edcd e2ed|c~F3 FEFA|Bcde feag|
~f3d gfed|edcd e2ed|1 c~F3 Bcdf| edcA B2de:|2 c~F3 edcd|e~A3 B2BA|]
<end>
<start>
